picto/electric-coupling-framed.svg

<svg class="color-immutable" width="30" height="30" viewBox="0 0 30 30" fill="none" xmlns="http://www.w3.org/2000/svg"><path d="M29.9999 0H0V29.9999H29.9999V0Z" fill="#2D327D"/><path d="M4.49999 2.99999H25.4999C26.3249 2.99999 26.9999 3.67499 26.9999 4.49999V25.4999C26.9999 26.3249 26.3249 26.9999 25.4999 26.9999H4.49999C3.67499 26.9999 2.99999 26.3249 2.99999 25.4999V4.49999C2.99999 3.67499 3.67499 2.99999 4.49999 2.99999ZM4.49999 2.62499C3.46612 2.62499 2.62499 3.46612 2.62499 4.49999V25.4999C2.62499 26.5338 3.46612 27.3749 4.49999 27.3749H25.4999C26.5338 27.3749 27.3749 26.5338 27.3749 25.4999V4.49999C27.3749 3.46612 26.5338 2.62499 25.4999 2.62499H4.49999Z" fill="white"/><path d="M22.3716 15.4397L22.3627 15.4161C22.1949 15.0426 22.1738 14.7168 22.2964 14.3903L21.9168 14.2477C21.7577 14.6714 21.7808 15.1041 21.9875 15.5703C22.1907 16.2432 22.0512 16.7008 22.002 16.7871L21.5403 17.4717L21.2099 17.2488C21.0834 17.1635 20.9102 17.1972 20.8249 17.3236L19.4342 19.3854C19.3489 19.5119 19.3826 19.6851 19.509 19.7704L19.7281 19.9182C19.7012 19.9392 19.6762 19.9635 19.6561 19.9932L18.3332 21.9545C18.2292 22.1086 18.2703 22.3197 18.4244 22.4237L18.4524 22.4426C18.6066 22.5465 18.8177 22.5055 18.9216 22.3514L20.2446 20.3901C20.2647 20.3603 20.2777 20.3281 20.2872 20.2952L20.5063 20.4429C20.6328 20.5282 20.806 20.4945 20.8913 20.3681L22.282 18.3063C22.3673 18.1798 22.3336 18.0066 22.2072 17.9213L21.8767 17.6984L22.3417 17.009L22.3468 17.0011C22.4813 16.7797 22.5992 16.1812 22.3716 15.4397Z" fill="white"/><path d="M18.918 9.42562C20.5944 11.5923 20.1963 14.7065 18.0296 16.3829C17.2049 17.0209 16.7383 18.0203 16.7796 19.0635C16.8092 19.8267 16.6296 20.5827 16.2598 21.2514C16.0649 21.6035 15.7872 21.9 15.4482 22.1174C14.3247 22.8381 12.829 22.5108 12.1083 21.3861C11.9654 21.164 12.0303 20.8686 12.2525 20.7257C12.4746 20.5839 12.7711 20.6489 12.9129 20.871C13.3488 21.5503 14.2526 21.7476 14.9331 21.3129C15.1374 21.1817 15.3052 21.0009 15.4233 20.7895C15.708 20.2732 15.8475 19.6896 15.8238 19.1001C15.7707 17.7487 16.3755 16.455 17.4447 15.6268C19.1944 14.2741 19.5146 11.7589 18.1619 10.0105C16.8092 8.262 14.2951 7.94062 12.5466 9.29332C11.6346 9.99862 11.0699 11.0631 11.0002 12.2137C10.9836 12.4772 10.7568 12.6781 10.4934 12.6615C10.2299 12.6461 10.029 12.4193 10.0456 12.1558C10.1331 10.7299 10.8312 9.41144 11.9607 8.53717C14.1275 6.86077 17.2428 7.25887 18.918 9.42562Z" fill="white"/><path d="M17.648 10.4085C18.7809 11.8734 18.5116 13.9787 17.0466 15.1116C16.9521 15.1849 16.8599 15.2628 16.7714 15.3432C16.6118 15.4849 16.3685 15.4719 16.2256 15.3136C16.0826 15.1553 16.0956 14.9108 16.2539 14.769C16.3579 14.6757 16.4642 14.5858 16.5741 14.5008C17.7023 13.6289 17.9091 12.008 17.0372 10.881C16.1654 9.75394 14.5445 9.54717 13.4162 10.419C13.1422 10.6317 12.913 10.8975 12.7428 11.1999C12.6389 11.3866 12.4038 11.4528 12.2183 11.3488C12.0316 11.2449 11.9655 11.0097 12.0694 10.8231C12.2892 10.4297 12.5868 10.0835 12.9437 9.80824C14.4086 8.67417 16.515 8.94357 17.648 10.4085Z" fill="white"/><path d="M12.8141 17.1847C11.7391 16.6696 10.873 15.8025 10.3568 14.7274L5.99999 19.0842V23.9999L12.8141 17.1847Z" fill="white"/><path d="M18.2097 6.87374C19.2399 7.45026 20.0905 8.30083 20.6682 9.33103L22.2858 7.71343C22.2858 7.71358 22.2859 7.71373 22.286 7.71381L23.9999 5.99999H19.0837L18.2097 6.87374Z" fill="white"/></svg>

<svg class="color-immutable" width="30" height="30" viewBox="0 0 30 30" fill="none" xmlns="http://www.w3.org/2000/svg"><path d="M30 0H0v30h30V0Z" fill="#2D327D"/><path d="M4.5 3h21c.825 0 1.5.675 1.5 1.5v21c0 .825-.675 1.5-1.5 1.5h-21c-.825 0-1.5-.675-1.5-1.5v-21C3 3.675 3.675 3 4.5 3Zm0-.375A1.877 1.877 0 0 0 2.625 4.5v21c0 1.034.841 1.875 1.875 1.875h21a1.877 1.877 0 0 0 1.875-1.875v-21A1.877 1.877 0 0 0 25.5 2.625h-21Z" fill="#fff"/><path d="m22.372 15.44-.01-.024c-.167-.373-.188-.7-.066-1.026l-.38-.142c-.158.423-.135.856.072 1.322.203.673.063 1.13.014 1.217l-.462.685-.33-.223a.278.278 0 0 0-.385.075l-1.39 2.061a.278.278 0 0 0 .074.385l.22.148a.332.332 0 0 0-.073.075l-1.323 1.962a.339.339 0 0 0 .091.469l.028.019a.339.339 0 0 0 .47-.092l1.323-1.96a.332.332 0 0 0 .042-.096l.22.148c.126.085.299.051.384-.075l1.391-2.062a.278.278 0 0 0-.075-.385l-.33-.223.465-.689.005-.008c.134-.221.252-.82.025-1.561ZM18.918 9.426a4.959 4.959 0 0 1-.888 6.957 3.23 3.23 0 0 0-1.25 2.68c.03.764-.15 1.52-.52 2.188a2.417 2.417 0 0 1-4.152.135.478.478 0 1 1 .805-.515 1.464 1.464 0 0 0 2.51-.081 3.23 3.23 0 0 0 .4-1.69 4.187 4.187 0 0 1 1.622-3.473A4.003 4.003 0 1 0 11 12.214a.478.478 0 0 1-.954-.058 4.96 4.96 0 0 1 8.872-2.73Z" fill="#fff"/><path d="M17.648 10.409a3.352 3.352 0 0 1-.601 4.703 4.64 4.64 0 0 0-.276.231.388.388 0 0 1-.545-.03.385.385 0 0 1 .028-.544 5.73 5.73 0 0 1 .32-.268 2.58 2.58 0 1 0-3.831-3.301.386.386 0 1 1-.673-.377 3.353 3.353 0 0 1 5.579-.415ZM12.814 17.185a5.237 5.237 0 0 1-2.457-2.458L6 19.084V24l6.814-6.815ZM18.21 6.874a6.406 6.406 0 0 1 2.458 2.457l1.618-1.618L24 6h-4.916l-.874.874Z" fill="#fff"/></svg>
